!!!!SEGMENT: pl-kk--kk-i-388--001_anonim--credo-no-1.krn
!!!cenid: 18xx:1398
!!!COM: Anonim
!!!COM-rismid: pe30004985
!!!CDT:
!!!CNT:
!!!OTL: Credo No 1
!!!PDT:
!!!AGN: Sacred; Mass section
!!!SMS-siglum: PL-Kk
!!!SMS-shelfmark: Kk.I.388
!!!SMS-shelfwork: 001 W
!!!SMS-variant:
!!!SMS-altvar:
!!!NIFC-rismid: 1001140638
!!!URL-scan: http://repozytorium.nifc.pl/skany/pl-kk-nut--i-388
!!!ONB-nifc:
**kern	**text	**kern	**text	**kern	**text	**kern	**text
*part4	*part4	*part3	*part3	*part2	*part2	*part1	*part1
*staff4	*staff4	*staff3	*staff3	*staff2	*staff2	*staff1	*staff1
*I"Basso.	*	*I"Tenore.	*	*I"Alto.	*	*I"Soprano.	*
*I'B	*	*I'T	*	*I'A	*	*I'S	*
*clefF4	*	*clefC4	*	*clefC3	*	*clefC1	*
*k[]	*	*k[]	*	*k[]	*	*k[]	*
*M4/4	*	*M4/4	*	*M4/4	*	*M4/4	*
*met(c)	*	*met(c)	*	*met(c)	*	*met(c)	*
=1	=1	=1	=1	=1	=1	=1	=1
*	*	*2\right	*	*2\right	*	*2\right	*
!	!	!LO:TX:t=P:problem:all\right:global	!	!LO:TX:t=P:problem:all\right:global	!	!LO:TX:t=P:problem:all\right:global	!
!LO:TX:t=P:problem:oznaczenie metryczne C z kropką	!	!LO:TX:t=P:problem:oznaczenie metryczne C z kropką	!	!LO:TX:t=P:problem:oznaczenie metryczne C z kropką	!	!LO:TX:t=P:problem:oznaczenie metryczne C z kropką	!
!LO:TX:a:t=in A. mol.	!	!LO:TX:a:t=in A mol.	!	!LO:TX:a:t=in A. mol.	!	!LO:TX:a:t=in A. mol.	!
2AA/	Pa-	2A\	Pa-	2c\	Pa-	2a\	Pa-
4BB/	-trem	4A\	-trem	4d\	-trem,	4a\	-trem
4C/	om-	4A\	om-	4e\	om-	4a\	om-
=2	=2	=2	=2	=2	=2	=2	=2
!LO:TX:t=P:problem:all\right:global	!	!	!	!	!	!	!
4D\	-ni-	4A\	-ni-	4f\	-ni-	4a\	-ni-
4E\	-po-	4A\	-po-	4e\	-po-	4a\	-po-
*2\right	*	*	*	*	*	*	*
2F\	-ten-	2A\	-ten-	2d\	-ten-	2a\	-ten-
=3	=3	=3	=3	=3	=3	=3	=3
2E\	-tem,	2B\	-tem,	2e\	-tem,	2g#X\	-tem,
4r	.	4r	.	4r	.	4r	.
4E\	fac-	4B\	fac-	4e\	fac-	4g#\	fac-
=4	=4	=4	=4	=4	=4	=4	=4
4C/	-to-	4A/	-to-	4e\	-to-	4a\	-to-
4BB/	-rem	4G#X/	-rem	4e\	-rem	4b\	-rem
!	!	!LO:SIC:v:l:s=cae-	!	!LO:SIC:v:l:s=cae-	!	!LO:SIC:v:l:s=Cae-	!
4AA/	cae-	4A\	ce-	4e\	ce-	4cc\	Cel-
8A\	-li	8c\	-li	8e\	-li	8ee\	-li
8A\	et	8c\	et	8e\	et	8ee\	et
=5	=5	=5	=5	=5	=5	=5	=5
2G#X\	Ter-	2B\	Ter-	2e\	Ter-	4.ee\	ter-
.	.	.	.	.	.	8dd\	.
!	!	!	!	!LO:LB:g=original	!	!LO:LB:g=original	!
!LO:SIC:v:l:s=-rae	!	!LO:SIC:v:l:s=-rae	!	!	!	!	!
4A\	-re	4A\	-re,	4e\	-re,	4cc\	-re,
4A\	vi-	[4A\	vi-	[4a\	vi-	4a\	et
!LO:LB:g=original	!	!LO:LB:g=original	!	!	!	!	!
=6	=6	=6	=6	=6	=6	=6	=6
4A\	.	4A\]	.	4a\]	.	4a\	vi-
4Gn\	-si-	4e\	-si-	4a\	-si-	4cc#X\	-si-
4F\	-bi-	4d\	-bi-	4a\	-bi-	4dd\	-bi-
4E\	-li-	4c#X\	-li-	4a\	-li-	4ee\	-li-
=7	=7	=7	=7	=7	=7	=7	=7
4D\	-um,	4d\	-um,	4a\	-um,	4ff\	-um,
4.D\	om-	4.d\	om-	4.a\	om-	4.ff\	om-
8D\	-ni-	8d\	-ni-	8a\	-ni-	8ff\	-ni-
[4D\	-um	[4d\	-um	[4a\	-um	[4ff\	-um
=8	=8	=8	=8	=8	=8	=8	=8
4D\]	.	4d\]	.	4a\]	.	4ff\]	.
2D\	et	2d\	et	2a\	et	2ff\	et
4C/	in-	4d\	in-	4a\	in-	4ff\	in-
=9	=9	=9	=9	=9	=9	=9	=9
4BB/	-vi-	4d\	-vi-	2g\	-vi-	4ff\	-vi-
4C/	.	4c\	.	.	.	4ee\	.
4E\	-si-	4B\	.	4g#X\	.	4dd\	-si-
4F\	.	4A\	-si-	4a\	-si-	4cc\	.
=10	=10	=10	=10	=10	=10	=10	=10
2D\	-bi-	2f\	-bi-	2.a\	-bi-	2.b\	-bi-
2E\	-li-	4e\	.	.	.	.	.
.	.	4d\	-li-	4g#X\	-li-	4b\	-li-
=11	=11	=11	=11	=11	=11	=11	=11
2AA/	-um,	2c\	-um,	2a\	-um,	2a\	-um,
2r	.	4e\	et	2r	.	4cc\	et
.	.	4e\	in	.	.	4cc\	in
!	!	!	!	!LO:LB:g=original	!	!LO:LB:g=original	!
=12	=12	=12	=12	=12	=12	=12	=12
4c\	et	2e\	u-	4g\	et	2cc\	u-
4c\	in	.	.	4g\	in	.	.
!	!	!LO:LB:g=original	!	!	!	!	!
4G\	u-	2d\	-num,	4g\	u-	2b\	-num
4G\	-num	.	.	4g\	-num	.	.
!LO:LB:g=original	!	!	!	!	!	!	!
=13	=13	=13	=13	=13	=13	=13	=13
4.A\	Do-	4.c\	Do-	4.e\	Do-	4.a\	Do-
8A\	-mi-	8c\	-mi-	8e\	-mi-	8a\	-mi-
4A\	-num	4c\	-num	4e\	-num	4a\	-num
[4F\	Je-	[4c\	Je-	[4f\	Je-	[4a\	Je-
=14	=14	=14	=14	=14	=14	=14	=14
4F\]	.	4c\]	.	4f\]	.	4a\]	.
4F\	-sum	4c\	-sum	4f\	-sum	4a\	-sum
2F\	Chri-	2c\	Chri-	2f\	Chri-	2a\	Chri-
=15	=15	=15	=15	=15	=15	=15	=15
2C/	-stum,	2c\	-stum,	2e\	-stum	2g\	-stum,
4.c\	Fi-	4.e\	Fi-	4.g\	Fi-	4.cc\	Fi-
8c\	-li-	8e\	-li-	8g\	-li-	8cc\	-li-
=16	=16	=16	=16	=16	=16	=16	=16
4c\	-um	4e\	-um	4g\	-um,	4cc\	-um
2c\	De-	2e\	De-	2g\	De-	2cc\	De-
4G\	-i	4e\	-i	4g\	-i	4cc\	-i
=17	=17	=17	=17	=17	=17	=17	=17
4A\	u-	4c\	u-	4e\	u-	4a\	u-
4A\	-ni-	4c\	-ni-	4e\	-ni-	4a\	-ni-
4.F\	-ge-	4.c\	-ge-	4.f\	-ge-	4.a\	-ge-
8F\	-ni-	8c\	-ni-	8f\	-ni-	8a\	-ni-
!	!	!	!	!	!	!LO:LB:g=original	!
=18	=18	=18	=18	=18	=18	=18	=18
2C/	-tum	2c\	-tum,	2e\	-tum,	2g\	-tum,
!	!	!	!	!LO:LB:g=original	!	!	!
4E\	et	4c\	et	4g\	et	4cc\	et
4E\	ex	4c\	ex	4g\	ex	4cc\	ex
!LO:LB:g=original	!	!LO:LB:g=original	!	!	!	!	!
=19	=19	=19	=19	=19	=19	=19	=19
4F\	Pa-	4d\	Pa-	2.g\	Pa-	4b\	Pa-
4E\	.	4c\	.	.	.	4cc\	.
4D\	-tre	4B\	-tre	.	.	4dd\	-tre
4C\	.	4c\	.	4g\	-tre	4ee\	.
=20	=20	=20	=20	=20	=20	=20	=20
2D\	na-	2A\	na-	2f\	na-	2ff\	na-
2G\	-tum	2B\	-tum,	2g\	-tum	2dd\	-tum
=21	=21	=21	=21	=21	=21	=21	=21
4C/	an-	4c\	an-	2.g\	an-	4ee\	an-
4BB/	-te	4d\	-te	.	.	4dd\	-te
4C/	om-	8e\	om-	.	.	4cc\	om-
.	.	8e\	-ni-	.	.	.	.
8D\	-ni-	4d\	-a	4g\	-te	8b\	-ni-
8D\	-a	.	.	.	.	8b\	-a
=22	=22	=22	=22	=22	=22	=22	=22
!LO:SIC:v:l:s=sae-	!	!LO:SIC:v:l:s=sae-	!	!	!	!LO:SIC:v:l:s=sae-	!
2E\	se-	2c#X\	se-	4g\	om-	2a\	se-
.	.	.	.	8g\	-ni-	.	.
.	.	.	.	8g\	-a	.	.
4D\	.	4d\	.	4g\	se-	2a\	-cu-
4D\	-cu-	4cn\	-cu-	4f#X\	-cu-	.	.
=23	=23	=23	=23	=23	=23	=23	=23
2G\	-la,	2B\	-la,	2g\	-la	2g\	-la.
2r	.	2r	.	4.g\	ge-	2r	.
.	.	.	.	8fn\	-ni-	.	.
!	!	!	!	!	!	!LO:LB:g=original	!
=24	=24	=24	=24	=24	=24	=24	=24
!	!	!	!	!	!	!LO:TX:a:t=1.	!
4.G\	ge-	4r	.	4e\	-tum,	1r	.
.	.	2B-X\	De-	4d\	non	.	.
8F\	-ni-	.	.	.	.	.	.
4E\	-tum	.	.	4c#X\	fa-	.	.
4D\	non	8B-\	-um	4d\	-ctum	.	.
.	.	8B-\	de	.	.	.	.
!	!	!	!	!LO:LB:g=original	!	!	!
=25	=25	=25	=25	=25	=25	=25	=25
4C#X/	fa-	4A\	De-	4e\	fa-	2r	.
4D/	.	2d\	.	4f\	.	.	.
2E\	-ctum	.	.	4g\	.	4r	.
.	.	4c#X\	.	8a\L	.	[4a\	lu-
.	.	.	.	8g\J	.	.	.
!LO:LB:g=original	!	!LO:LB:g=original	!	!	!	!	!
=26	=26	=26	=26	=26	=26	=26	=26
2D\	con-	2d\	-o,	4f\	-ctum,	4a\]	.
.	.	.	.	2a\	con-	2dd\	-men
4F\	.	4r	.	.	.	.	.
4E\	-sub-	4c#X\	lu-	4g\	-sub-	4ee\	de
=27	=27	=27	=27	=27	=27	=27	=27
4D/	-stan-	4d\	-men	4f\	-stan-	4.ff\	lu-
4Cn/	-ti-	4e\	de	4a\	-ti-	.	.
.	.	.	.	.	.	8ee\	-mi-
4BB/	-a-	[2f\	lu-	4g#X\	-a-	2dd\	-ne,
4AA/	-lem	.	.	4a\	-lem	.	.
=28	=28	=28	=28	=28	=28	=28	=28
1GG#X/	Pa-	4f\]	.	2b\	Pa-	4dd\	De-
.	.	4d\	.	.	.	4ff\	.
.	.	4e\	-mi-	2b\	-tri,	4ee\	-um
.	.	4f\	-ne	.	.	4dd\	de
=29	=29	=29	=29	=29	=29	=29	=29
4AA/	-tri,	2e\	De-	4b\	per	2cc\	De-
4C\	per	.	.	2a\	.	.	.
4D\	.	4d\	-um	.	.	2b-X\	.
4E\	quem	4c\	de	4gn\	.	.	.
=30	=30	=30	=30	=30	=30	=30	=30
4.F\	om-	2.c\	De-	4g\	quem	4a\	-o,
.	.	.	.	4.f\	om-	4a\	de
8F\	-ni-	.	.	.	.	.	.
2C/	-a	.	.	.	.	2g\	De-
.	.	.	.	8f\	-ni-	.	.
.	.	4B-X\	-o	4e\	-a	.	.
!	!	!	!	!LO:LB:g=original	!	!LO:LB:g=original	!
=31	=31	=31	=31	=31	=31	=31	=31
4D/	fac-	2A\	ve-	4d\	fac-	2f/	-o,
4C/	.	.	.	2f\	.	.	.
4BB-X/	.	4d\	.	.	.	2g\	ve-
4C/	-ta,	4c\	.	4e\	-ta	.	.
=32	=32	=32	=32	=32	=32	=32	=32
4F\	sunt,	4c\	-ro,	4f\	sunt,	4a\	-ro,
4F\	qui	4c\	qui	4f\	qui	4a\	qui
!	!	!LO:LB:g=original	!	!	!	!	!
4F\	pro-	4c\	pro-	4f\	pro-	4a\	pro-
8F\	-pter	8c\	-pter	8f\	-pter	8a\	-pter
8F\	nos	8c\	nos	8f\	nos	8a\	nos
!LO:LB:g=original	!	!	!	!	!	!	!
=33	=33	=33	=33	=33	=33	=33	=33
4.F\	Ho-	4.c\	Ho-	4.f\	ho-	4.a\	Ho-
8F\	-mi-	8A\	-mi-	8c\	-mi-	8f/	-mi-
2F\	-nes,	2A\	-nes,	2c\	-nes,	2f/	-nes
=34	=34	=34	=34	=34	=34	=34	=34
4r	.	4r	.	4r	.	4r	.
4F\	et	4c\	et	4a\	et	4cc\	et
4F\	pro-	4c\	pro-	4a\	pro-	4cc\	pro-
4F\	-pter,	4c\	-pter	4a\	-pter,	4cc\	-pter
=35	=35	=35	=35	=35	=35	=35	=35
4E\	no-	2c\	no-	4g\	no-	2cc\	no-
4F\	.	.	.	4a\	.	.	.
4E\	-stram	4c\	-stram	4g\	-stram	4cc\	-stram
4D\	sa-	4Bn\	sa-	4g\	sa-	4dd\	sa-
=36	=36	=36	=36	=36	=36	=36	=36
4C\	-lu-	2c\	-lu-	2g\	-lu-	2ee\	-lu-
4E\	.	.	.	.	.	.	.
4G\	-tem	4c\	-tem,	4g\	-tem,	4ee\	-tem,
4c\	de-	4c\	de-	4g\	de-	4ee\	de-
!	!	!	!	!LO:LB:g=original	!	!LO:LB:g=original	!
=37	=37	=37	=37	=37	=37	=37	=37
!	!	!	!	!	!	!LO:SIC:v:l:s=-scen	!
2.G\	-scen-	2e\	-scen-	4g\	-scen-	2.gg\	-cen-
.	.	.	.	4cc\	.	.	.
.	.	4d\	-dit	4b\	.	.	.
4A\	.	4c\	de-	4a\	.	4ff\	.
=38	=38	=38	=38	=38	=38	=38	=38
4B\	-dit	4d\	-scen-	2g\	-dit,	4ff\	.
!	!	!LO:LB:g=original	!	!	!	!	!
4c\	.	2e\	-dit	.	.	2ee\	.
4B\	des-	.	.	4g#X\	de-	.	.
4A\	.	4f\	de-	4a\	.	4dd\	.
=39	=39	=39	=39	=39	=39	=39	=39
4G#X\	-cen-	2e\	-scen-	4b\	-scen-	4dd\	.
2A\	.	.	.	4a\	.	4cc\	.
.	.	4d\	-dit	4f\	-dit,	2b\	.
4Gn\	.	4B\	de	4d\	de	.	.
!LO:LB:g=original	!	!	!	!	!	!	!
=40	=40	=40	=40	=40	=40	=40	=40
!	!	!LO:SIC:v:l:s=cae-	!	!LO:SIC:v:l:s=cae-	!	!	!
4G\	.	4c\	ce-	4e\	ce-	2.a\	-dit
4F\	.	4A\	.	4d\	.	.	.
4E\	-dit	2B\	-lis	[2e\	.	.	.
4D\	de-	.	.	.	.	4g#X\	de
=41	=41	=41	=41	=41	=41	=41	=41
!	!	!	!	!	!	!LO:SIC:v:l:s=cae-	!
4C/	-scen-	4A/	de-	2e\]	.	4a\	ce-
4BB/	.	4G#X/	.	.	.	4b\	.
4AA/	-dit,	4A\	-scen-	4e\	-lis,	4cc\	-lis,
4E\	de	4e\	.	4ee\	de-	4ee\	de-
=42	=42	=42	=42	=42	=42	=42	=42
!LO:SIC:v:l:s=cae-	!	!	!	!	!	!	!
4c\	ce-	4c\	-dit	4cc\	-scen-	4cc\	-scen-
4B\	.	4B\	.	4b\	.	4b\	.
4A\	.	4A\	.	4a\	-dit	4a\	-dit
4G\	.	4Gn/	de	4e\	de	4e/	de
!	!	!	!	!LO:LB:g=original	!	!LO:LB:g=original	!
=43	=43	=43	=43	=43	=43	=43	=43
!	!	!LO:SIC:v:l:s=cae-	!	!LO:SIC:v:l:s=cae-	!	!LO:SIC:v:l:s=cae-	!
4F\	.	2A\	ce-	2c\	ce-	1a\	ce-
4E\	.	.	.	.	.	.	.
4D\	-lis,	4B\	.	4d\	.	.	.
4C\	de	4c\	.	4e\	.	.	.
=44	=44	=44	=44	=44	=44	=44	=44
!LO:SIC:v:l:s=cae-	!	!	!	!	!	!	!
2BB/	ce-	2d\	.	2f\	.	2a\	.
2E\	.	2B\	.	2e\	.	2g#X\	.
=45	=45	=45	=45	=45	=45	=45	=45
!LO:TX:t=P:problem:łuk nad całą nutą [przyjęto fermatę]	!	!	!	!	!	!	!
!LO:TX:a:t=45.	!	!	!	!	!	!	!
1AA/;	-lis,	1A\	-lis.	1e\	-lis.	1a\	-lis.
!	!	!LO:TX:a:t=45.	!	!LO:TX:a:t=45.	!	!LO:TX:a:t=45.	!
!	!	!LO:LB:g=original	!	!	!	!	!
=46||	=46||	=46||	=46||	=46||	=46||	=46||	=46||
*M3/4	*	*M3/4	*	*M3/4	*	*M3/4	*
!LO:TX:a:t=1.	!	!LO:TX:a:t=1	!	!	!	!	!
2.r	.	2.r	.	4f\	Et	4f/	Et
.	.	.	.	4f\	in-	4f/	in-
.	.	.	.	4f\	-car-	4a/	-car-
=47	=47	=47	=47	=47	=47	=47	=47
4F\	Et	4F/	Et	2a\	-na-	2cc\	-na-
4F\	in-	4F/	in-	.	.	.	.
4D\	-car-	4A/	-car-	4f\	-tus,	4cc\	-tus
!LO:LB:g=original	!	!	!	!	!	!	!
=48	=48	=48	=48	=48	=48	=48	=48
4C/	-na-	2.c\	-na-	4g\	et	4ee\	et
4AA/	.	.	.	4f\	in-	4ff\	in-
4C/	.	.	.	4g\	-car-	4ee\	-car-
=49	=49	=49	=49	=49	=49	=49	=49
4D\	.	4A\	.	4f\	-na-	4dd\	-na-
4E\	.	2c\	-tus	4g\	.	4cc\	.
4F\	-tus	.	.	4f\	-tus	4a\	-tus
=50	=50	=50	=50	=50	=50	=50	=50
!	!	!LO:TX:t=P:problem:kreska taktowa podwójna	!	!	!	!	!
2.C/	est,	2.c;\	est,	2.e;\	est,	2.g;\	est,
!	!	!	!	!LO:LB:g=original	!	!LO:LB:g=original	!
=51	=51	=51	=51	=51||	=51	=51	=51
!LO:TX:a:t=Vi+	!	!	!	!	!	!	!
!LO:TX:a:t=1.	!	!LO:TX:a:t=1.	!	!	!	!	!
2.r	.	2.r	.	4r	.	4f\	de
.	.	.	.	4r	.	4f\	ſpi-
.	.	.	.	4f\	de	4a\	-ri-
!LO:LB:g=original	!	!	!	!	!	!	!
=52	=52	=52	=52	=52	=52	=52	=52
!LO:TX:a:t=de.	!	!	!	!	!	!	!
!LO:TX:t=P:problem:skreślone 14 taktów	!	!	!	!	!	!	!
4F\	de	4c\	de	4a\	ſpi-	2cc\	-tu
4E\	.	4c\	ſpi-	4g\	-ri-	.	.
4D\	.	4Bn\	.	4f\	-tu	4dd\	.
=53	=53	=53	=53	=53	=53	=53	=53
!LO:N:vis=4	!	!	!	!	!	!	!
8C/	ſpi-	8c\L	-ri-	8e\L	san-	4ee\	ſan-
!LO:N:vis=4	!	!	!	!	!	!	!
8BB/	.	8d\J	.	8g#X\J	.	.	.
!LO:N:vis=4	!	!	!	!	!	!	!
8AA/	-ri-	8c\L	.	8a\L	.	4ff\	.
!LO:N:vis=4	!	!	!	!	!	!	!
8BB/	.	8d\J	.	8gn\J	.	.	.
!LO:N:vis=4	!	!	!	!	!	!	!
8C/	-tu	4c\	-tu	4f\	.	4ee\	-cto,
!LO:N:vis=4	!	!	!	!	!	!	!
8E/	.	.	.	.	.	.	.
=54	=54	=54	=54	=54	=54	=54	=54
8G\L	san-	4Bn\	san-	8g\L	.	4dd\	san-
8G#X\J	.	.	.	8f\J	.	.	.
4A\	.	2c\	.	4e\	.	4cc\	.
4Fn\	.	.	.	4f\	.	4a\	.
!	!	!LO:LB:g=original	!	!	!	!	!
=55	=55	=55	=55	=55	=55	=55	=55
!	!	!LO:TX:t=P:problem:kreska taktowa pojedyncza	!	!	!	!	!
2.C;/	-cto,	2.c;\	-cto,	2.e;\	-cto,	2.g;\	-cto,
=56||	=56||	=56||	=56||	=56||	=56||	=56||	=56||
4c\	Ex	2c\	ex	2.e\	ex	2g\	ex
4B-X\	.	.	.	.	.	.	.
4A\	Ma-	4c#X\	Ma-	.	.	4a\	Ma-
=57	=57	=57	=57	=57	=57	=57	=57
(4G\	-ri-	2d\	-ri-	2.g\	Ma-	2b-X\	-ri-
4F\	.	.	.	.	.	.	.
4E\)	-[[a]]-	4cn\	-a	.	.	4cc\	-a
=58	=58	=58	=58	=58	=58	=58	=58
4F\	-a	2.c\	vir-	4f\	-ri-	2.a\	Vir-
2F\	Vir-	.	.	2f\	-a	.	.
!	!	!	!	!LO:LB:g=original	!	!LO:LB:g=original	!
=59	=59	=59	=59	=59	=59	=59	=59
2C/	.	2c\	.	4f\	vir-	2g\	.
.	.	.	.	4e\	.	.	.
4D/	-gi-	4A\	-gi-	4d\	-gi-	4f/	-gi-
=60	=60	=60	=60	=60	=60	=60	=60
2.AA;/	-ne	2.A;\	-ne,	2.c#X;\	-ne,	2.e;/	-ne,
=61||	=61||	=61||	=61||	=61||	=61||	=61||	=61||
4r	.	4A\	et	4r	.	4r	.
4r	.	4A\	Ho-	4r	.	4r	.
4D\	et	4A\	-mo	4d\	et	4f#X/	et
=62	=62	=62	=62	=62	=62	=62	=62
2D\	Ho-	2A\	Ho-	2d\	Ho-	2f#X/	ho-
4G\	-mo	4B-X\	-mo	4d\	-mo,	4g/	-mo
=63	=63	=63	=63	=63	=63	=63	=63
4G\	ho-	4B-X\	fa-	4d\	fa-	4g\	ho-
4F\	.	4c\	.	2fn\	.	4a\	.
4BB-X/	-mo	4d\	.	.	.	4b-X\	-mo
!LO:LB:g=original	!	!LO:LB:g=original	!	!	!	!	!
=64	=64	=64	=64	=64	=64	=64	=64
4BB-X/	fa-	4d\	.	2f\	.	4b-X\	fac-
4F\	.	4c\	.	.	.	4a\	.
4G\	-ctus	4B-X\	-ctus	4d\	-ctus	4g\	-tus
=65	=65	=65	=65	=65	=65	=65	=65
!LO:TX:a:t=re&colon;	!	!	!	!	!	!	!
2.D\	est.	2.A\	est,	2.d\	est,	2.f#X/	est,
!LO:LB:g=original	!	!	!	!	!	!	!
=66	=66	=66	=66	=66||	=66	=66||	=66
!LO:TX:a:t=1.	!	!	!	!	!	!	!
!LO:TX:a:t=tro.	!	!	!	!LO:TX:a:t=1.	!	!LO:TX:a:t=2	!
!	!	!	!	!	!	!LO:N:vis=0	!
2.r	.	4r	.	2.r	.	1.r	.
.	.	4d\	Cru-	.	.	.	.
.	.	4A\	-ci-	.	.	.	.
=67	=67	=67	=67	=67	=67	=67	=67
2.G\	cru-	2.Bn\	-fi-	4r	.	.	.
.	.	.	.	4g\	cru-	.	.
.	.	.	.	4d\	-ci-	.	.
!	!	!	!	!LO:LB:g=original	!	!	!
=68	=68	=68	=68	=68	=68	=68	=68
2.C/	-ci-	2c\	.	2.e\	-fi-	4r	.
.	.	.	.	.	.	4cc\	Cru-
.	.	4B-X\	-xus	.	.	4g\	-ci-
!	!	!	!	!	!	!LO:LB:g=original	!
=69	=69	=69	=69	=69	=69	=69	=69
2F\	-fi-	2.A\	est,	4f\	-xus,	2a\	-fi-
.	.	.	.	4a\	cru-	.	.
4G\	-xus	.	.	4e\	-ci-	4cc#X\	-xus
=70	=70	=70	=70	=70	=70	=70	=70
4F\	cru-	4r	.	4d\	-fi-	4dd\	cru-
4E\	.	4B-X\	cru-	4g\	-xus	4cc#X\	.
4D\	-ci-	4B-\	-ci-	8.g\	cru-	4dd\	-ci-
.	.	.	.	16g\	-ci-	.	.
=71	=71	=71	=71	=71	=71	=71	=71
4C#X\	-fi-	4B-X\	-fi-	4g\	-fi-	4ee\	-fi-
4D\	-xus	4A\	-xus	4f\	-xus	4ff\	-xus,
4r	.	4r	.	4r	.	4r	.
=72	=72	=72	=72	=72	=72	=72	=72
!LO:TX:a:t=1.	!	!	!	!	!	!LO:TX:a:t=2	!
!	!	!	!	!	!	!LO:N:vis=0	!
2.r	.	4.d\	e-	4r	.	1.r	.
.	.	.	.	4.b-X\	e-	.	.
.	.	8d\	-ti-	.	.	.	.
.	.	4c\	-am	.	.	.	.
.	.	.	.	8b-\	-ti-	.	.
!	!	!LO:LB:g=original	!	!	!	!	!
=73	=73	=73	=73	=73	=73	=73	=73
8F\	e-	8c\	e-	4.a\	-am,	.	.
8F\	-ti-	8c\	-ti-	.	.	.	.
4F\	-am	4Bn\	-am	.	.	.	.
.	.	.	.	8a\	pro	.	.
4E\	pro	4B\	pro	4g#X\	no-	.	.
=74	=74	=74	=74	=74	=74	=74	=74
8E\L	no-	8B-X\	no-	4gn\	-bis,	4r	.
8D\J	.	8B-\	-bis,	.	.	.	.
2C#X/	-bis	4.B-\	e-	4.g\	e-	4r	.
.	.	.	.	.	.	[4ee\	e-
.	.	8B-\	-ti-	8g\	-ti-	.	.
!LO:LB:g=original	!	!	!	!	!	!	!
=75	=75	=75	=75	=75	=75	=75	=75
8D\	e-	4A\	-am	2fn\	-am	8ee\]	.
8D\	-ti-	.	.	.	.	8ee\	-ti-
4D\	-am	2A\	pro	.	.	4dd\	-am
4D#X\	pro	.	.	4f#X\	pro	4cc\	pro
!	!	!	!	!LO:LB:g=original	!	!	!
=76	=76	=76	=76	=76	=76	=76	=76
4E\	no-	4A\	no-	4e\	no-	4cc\	no-
4E\	-bis	4G#X/	-bis	4e\	-bis,	4b\	-bis,
4E\	sub	4r	.	4r	.	4r	.
=77	=77	=77	=77	=77	=77	=77	=77
!	!	!	!	!	!	!LO:TX:a:t=1.	!
4.F\	pon-	4r	.	4r	.	2.r	.
.	.	4A\	pas-	4r	.	.	.
8F\	-ti-	.	.	.	.	.	.
8E\	-o	4c\	-sus	4e\	sub	.	.
8E\	Pi-	.	.	.	.	.	.
!	!	!	!	!	!	!LO:LB:g=original	!
=78	=78	=78	=78	=78	=78	=78	=78
2D\	-la-	8c\	et	4.f\	Pon-	4r	.
.	.	8c\	se-	.	.	.	.
.	.	8Bn\	-pul-	.	.	4r	.
.	.	8B\	-tus,	8f\	-ti-	.	.
4C/	-to,	8c\L	sub	8e\	-o	4e/	sub
.	.	8B-X\J	.	8e\	pi-	.	.
=79	=79	=79	=79	=79	=79	=79	=79
4.C#X/	Pon-	4A\	Pon-	2e\	-la-	4.g/	Pon-
!	!	!LO:LB:g=original	!	!	!	!	!
.	.	4A\	-ti-	.	.	.	.
8C#/	-ti-	.	.	.	.	8g/	-ti-
8D\	-o	4A\	-o	8d\	-to,	8f/	-o
8D\	Pi-	.	.	8d\	Pi-	8f/	Pi-
=80	=80	=80	=80	=80	=80	=80	=80
4AA/	-la-	4A\	Pi-	4d\	-la-	4f/	-la-
4AA/	-to,	4A\	-la-	4c#X\	-to,	4e/	-to,
4r	.	4A\	-to	4r	.	4r	.
!LO:LB:g=original	!	!	!	!	!	!	!
=81	=81	=81	=81	=81	=81	=81	=81
!	!	!	!	!LO:SIC:v:l:s=pas-	!	!	!
4D\	pas-	4A\	pas-	2d\	pa-	4f#X/	pas-
4D\	-sus	4A\	-sus	.	.	4f#/	-sus,
4r	.	4r	.	4d\	-sus	4r	.
=82	=82	=82	=82	=82	=82	=82	=82
!	!	!LO:SIC:v:l:s=pas-	!	!	!	!	!
!LO:SIC:v:l:s=pas-	!	!LO:TX:t=P:problem:takt dopisany pod pięciolinią	!	!LO:SIC:v:l:s=pas-	!	!	!
4Cn/	pa-	4A\	pa-	4d\	pa-	4f#X/	pas-
4C/	-sus	4A\	-sus,	4e-X\	.	4f#/	-sus
4r	.	4r	.	4e-\	-sus	4r	.
=83	=83	=83	=83	=83	=83	=83	=83
2.BBn/	et	4r	.	2e-X\	et	4r	.
.	.	4A/	et	.	.	4f#X/	et
.	.	4G/	.	4en\	se-	4g/	se-
=84	=84	=84	=84	=84	=84	=84	=84
2BB/	et	4G/	se-	4e\	-pul-	2.fn/	-pul-
.	.	4G#X/	.	2d\	-tus	.	.
4AA/	se-	4A/	.	.	.	.	.
!	!	!	!	!LO:LB:g=original	!	!	!
=85	=85	=85	=85	=85	=85	=85	=85
4GG#X/	-pul-	4B\	-pul-	4d\	se-	2.e/	.
4AA/	.	4A\	.	4c\	-pul-	.	.
4BB/	.	8E/L	.	4A/	-tus	.	.
.	.	8F#X/J	.	.	.	.	.
=86	=86	=86	=86	=86	=86	=86	=86
2BB/	.	4G/	.	[>2.Bn/	est	2e/	.
.	.	4F#X/	.	.	.	.	.
4BB/	-tus	4F#/	-tus	.	.	4d#X/	-tus
=87	=87	=87	=87	=87	=87	=87	=87
2.E\	est.	2.E/	est.	2.B/]	.	2.e;/	est.
!LO:TX:a:t=42.	!	!LO:TX:a:t=42.	!	!LO:TX:a:t=42.	!	!LO:TX:a:t=42.	!
!LO:PB:g=original	!	!LO:PB:g=original	!	!LO:PB:g=original	!	!LO:PB:g=original	!
=88||	=88||	=88||	=88||	=88||	=88||	=88||	=88||
*M4/4	*	*M4/4	*	*M4/4	*	*M4/4	*
*met(c)	*	*met(c)	*	*met(c)	*	*met(c)	*
!LO:TX:t=P:problem:oznaczenie metryczne C z kropką	!	!LO:TX:t=P:problem:oznaczenie metryczne C z kropką	!	!LO:TX:t=P:problem:oznaczenie metryczne C z kropką	!	!LO:TX:t=P:problem:oznaczenie metryczne C z kropką	!
2E\	Et	2E/	Et	2e\	Et	2e/	Et
4E\	re-	4E/	re-	4e\	re-	4e/	re-
4E\	-sur-	4E/	-sur-	4e\	-sur-	4e/	-sur-
=89	=89	=89	=89	=89	=89	=89	=89
!	!	!	!	!	!	!LO:TX:a:t=e	!
2E\	-re-	2E/	-re-	2e\	-re-	2e/	-re-
2D\	-xit	2B\	-xit	2e\	-xit	2g#X\	-xit
=90	=90	=90	=90	=90	=90	=90	=90
2C/	ter-	2A\	ter-	2e\	ter-	2a\	ter-
!	!	!	!	!LO:SIC:v:l:s=-ti-	!	!	!
4BB/	-ti-	4G#X/	-ti-	4e\	-li-	4b\	-ti-
4AA/	-a	4A/	-a	4e\	-a	4cc\	-a
=91	=91	=91	=91	=91	=91	=91	=91
2E\	di-	2A/	di-	2e\	Di-	2cc\	di-
4E\	-e	4G#X/	-e	2e\	-e	2b\	-e
4E\	se-	4B\	.	.	.	.	.
=92	=92	=92	=92	=92	=92	=92	=92
!	!	!	!	!	!	!LO:TX:a:t=1.	!
2A\	-cun-	2c\	se-	2r	.	1r	.
2Gn\	.	2B\	.	4r	.	.	.
.	.	.	.	4e\	se-	.	.
=93	=93	=93	=93	=93	=93	=93	=93
2F\	-dum	2A\	-cun-	2a\	-cun-	2r	.
2E\	se-	2c\	.	2g\	.	4r	.
.	.	.	.	.	.	4cc\	se-
=94	=94	=94	=94	=94	=94	=94	=94
2D\	-cun-	2B\	-dum	2g\	-dum	2dd\	-cun-
4C/	-dum	4c\	.	2g\	scrip-	4ee\	-dum
4C/	scrip-	4c\	scrip-	.	.	4ee\	scrip-
!LO:LB:g=original	!	!LO:LB:g=original	!	!LO:LB:g=original	!	!LO:LB:g=original	!
=95	=95	=95	=95	=95	=95	=95	=95
2G\	-tu-	2c\	-tu-	2g\	-tu-	2ee\	-tu-
2G\	-ras	2B\	-ras	2g\	-ras	2dd\	-ras
=96	=96	=96	=96	=96	=96	=96	=96
!LO:TX:a:t=1.	!	!	!	!LO:TX:a:t=1.	!	!	!
1r	.	2r	.	1r	.	4g\	et
.	.	.	.	.	.	4a\	.
.	.	4Gn/	et	.	.	4b\	as-
.	.	4A/	as-	.	.	4cc\	.
=97	=97	=97	=97	=97	=97	=97	=97
2r	.	4B\	-cen-	2r	.	4dd\	-cen-
.	.	4c\	.	.	.	4ee\	.
4D\	et	4d\	-dit	[2f\	et	4ff\	-dit
4D\	as-	4d\	in	.	.	4ff\	in
=98	=98	=98	=98	=98	=98	=98	=98
!	!	!LO:SIC:v:l:s=cae-	!	!	!	!LO:SIC:v:l:s=cae-	!
4D\	-cen-	1d\	ce-	4f\]	.	1ff\	ce-
4E\	.	.	.	4g\	.	.	.
4F\	-dit	.	.	4a\	as-	.	.
4G\	in	.	.	4b\	.	.	.
=99	=99	=99	=99	=99	=99	=99	=99
!LO:SIC:v:l:s=cae-	!	!	!	!	!	!	!
2A\	ce-	2d\	-lum,	2a\	-cen-	2ff\	.
4A\	-lum	2c\	se-	4a\	-dit	2ee\	-lum,
4A\	in	.	.	4a\	in	.	.
=100	=100	=100	=100	=100	=100	=100	=100
!LO:SIC:v:l:s=cae-	!	!	!	!	!	!	!
1B-X\	ce-	2c\	-det	1g\	ce-	2ee\	se-
.	.	2c\	ad	.	.	4ee\	-det
.	.	.	.	.	.	4ee\	ad
=101	=101	=101	=101	=101	=101	=101	=101
2A\	-lum,	2.c\	dex-	2f\	-lum	2ff\	dex-
4G\	se-	.	.	2g\	se-	4ee\	-te-
4F\	.	4B\	-teram	.	.	4dd\	-ram
!	!	!	!	!	!	!LO:LB:g=original	!
=102	=102	=102	=102	=102	=102	=102	=102
2E\	-det,	2c\	Pa-	2g\	.	2gg\	Pa-
2G\	ad	2d\	-tris,	4f\	-det	2b\	.
.	.	.	.	4f\	ad	.	.
!LO:LB:g=original	!	!	!	!LO:LB:g=original	!	!	!
=103	=103	=103	=103	=103	=103	=103	=103
2A\	dex-	2c\	dex-	2e\	dex-	1cc\	-tris,
4A\	-te-	4d\	-te-	4f\	-te-	.	.
4G\	-ram	4e\	-ram	4g\	-ram	.	.
!	!	!LO:LB:g=original	!	!	!	!	!
=104	=104	=104	=104	=104	=104	=104	=104
2F\	Pa-	2f\	Pa-	1a\	Pa-	1cc\	Pa-
2F#X\	.	2e\	.	.	.	.	.
=105	=105	=105	=105	=105	=105	=105	=105
1G\	-tris,	1d\	-tris,	2.g\	.	2cc\	.
.	.	.	.	.	.	2b\	.
.	.	.	.	4f\	.	.	.
=106	=106	=106	=106	=106	=106	=106	=106
2C/	et	2c\	et	2e\	-tris,	2cc\	-tris,
2c\	.	2e\	.	2g\	et	2ee\	et
=107	=107	=107	=107	=107	=107	=107	=107
4.c\	i-	4.e\	i-	4.g\	i-	4.ee\	i-
8c\	-te-	8e\	-te-	8g\	-te-	8ee\	-te-
2c\	-rum	2e\	-rum	2g\	-rum,	2ee\	-rum,
=108	=108	=108	=108	=108	=108	=108	=108
2r	.	2r	.	2r	.	2r	.
2C/	ven-	2G/	ven-	2c\	ven-	2e/	ven-
=109	=109	=109	=109	=109	=109	=109	=109
2BB/	-tu-	2G#X/	-tu-	2d\	-tu-	2e/	-tu-
2AA/	-rus	2A\	-rus	2c\	-rus	2f/	-rus
=110	=110	=110	=110	=110	=110	=110	=110
!	!	!	!	!	!	!LO:SIC:v:s=2.g#	!
2.E\	est	2.G#X/	est	2.B/	est,	2.g\	est,
4E\	cum	4B\	cum	4g#X\	cum	4ee\	cum
!LO:LB:g=original	!	!	!	!LO:LB:g=original	!	!LO:LB:g=original	!
=111	=111	=111	=111	=111	=111	=111	=111
4.E\	glo-	4.B\	glo-	4.g#X\	glo-	2ee\	glo-
8E\	-ri-	8B\	-ri-	8g#\	-ri-	.	.
2E\	-a	2B\	-a	2g#\	-a	4ee\	-ri-
.	.	.	.	.	.	4ee\	-a
=112	=112	=112	=112	=112	=112	=112	=112
2E\	ju-	2G#X/	ju-	2B/	ju-	2e/	ju-
2D\	-di-	2A/	-di-	2d\	-di-	2f/	-di-
!	!	!LO:LB:g=original	!	!	!	!	!
=113	=113	=113	=113	=113	=113	=113	=113
2C/	-ca-	2c\	-ca-	2e\	-ca-	2g\	-ca-
2F\	-re	2c\	-re	2f\	-re	2a\	-re
=114	=114	=114	=114	=114	=114	=114	=114
2E\	vi-	2c#X\	vi-	2g\	vi-	2a\	vi-
4E\	-vos	4c#\	-vos	4g\	-vos	4a\	-vos
4D\	et	4d\	et	4g\	et	4b-X\	et
=115	=115	=115	=115	=115	=115	=115	=115
4.C/	mor-	4.e\	mor-	4.g\	mor-	4.b-X\	mor-
8C/	-tu-	8e\	-tu-	8g\	-tu-	8a\	-tu-
2C/	-os	2e\	-os,	2g\	-os,	2a\	-os,
=116	=116	=116	=116	=116	=116	=116	=116
2.A\	cu-	2r	.	2r	.	2r	.
.	.	4c#X\	cu-	4a\	cu-	4a\	cu-
4G\	-jus	4e\	-jus	4a\	-jus	4cc#X\	-jus
=117	=117	=117	=117	=117	=117	=117	=117
4F\	re-	4d\	re-	2a\	re-	4dd\	re-
4E\	.	4c#X\	.	.	.	4ee\	.
4D\	-gni	4d\	-gni	4a\	-gni	4ff\	-gni
4C\	non	4d\	non	4a\	non	4ff\	non
!	!	!	!	!LO:LB:g=original	!	!LO:LB:g=original	!
=118	=118	=118	=118	=118	=118	=118	=118
2BB/	e-	2d\	e-	2gn\	e-	2ff\	e-
2C/	-rit	2cn\	-rit	2g\	-rit,	2ee\	-rit
!LO:LB:g=original	!	!	!	!	!	!	!
=119	=119	=119	=119	=119	=119	=119	=119
4r	.	4r	.	4r	.	4r	.
4C/	non	4e\	non	4g\	non	4ee\	non
4BB/	e-	4e\	e-	4g#X\	e-	4dd\	e-
4AA/	-rit	4e\	-rit	4a\	-rit	4cc\	-rit
!	!	!LO:LB:g=original	!	!	!	!	!
=120	=120	=120	=120	=120	=120	=120	=120
2D\	fi-	2f\	fi-	2a\	fi-	1b\	fi-
2E\	.	2e\	.	2g#X\	.	.	.
=121	=121	=121	=121	=121	=121	=121	=121
2AA/	-nis	2c\	-nis,	2a\	-nis,	2a\	-nis,
2C/	et	2e\	et	2gn\	et	2cc\	et
=122	=122	=122	=122	=122	=122	=122	=122
2D\	vi-	2d\	vi-	2f\	vi-	2b\	vi-
2D#X\	.	2c\	-tam	2f#X\	-tam	2a\	-tam
=123	=123	=123	=123	=123	=123	=123	=123
2E\	-tam	2B\	ven-	2e\	ven-	2g#X\	ven-
2Dn\	ven-	4G#X/	-tu-	4e\	-tu-	4b\	-tu-
.	.	4G#/	-ri	4e\	-ri	4b\	-ri
=124	=124	=124	=124	=124	=124	=124	=124
!	!	!LO:SIC:v:l:s=sae-	!	!LO:SIC:v:l:s=sae-	!	!LO:SIC:v:l:s=sae-	!
2C/	-tu-	2A\	se-	2e\	se-	1ee\	se-
2C#X/	-ri	2B-X\	-cu-	2g\	.	.	.
!	!	!	!	!LO:LB:g=original	!	!	!
=125	=125	=125	=125	=125	=125	=125	=125
!LO:SIC:v:l:s=sae-	!	!	!	!LO:SIC:v:l:s=-cu-	!	!	!
2.D\	se-	1A\	-li	2.f\	.	2ee\	.
.	.	.	.	.	.	4dd\	-cu-
!	!	!	!	!LO:SIC:v:l:s=-li	!	!	!
4E\	-cu-	.	.	4e\	-cu	4cc\	-li
=126	=126	=126	=126	=126	=126	=126	=126
1F\	-li	2G/	ven-	2d\	ven-	2b\	ven-
!	!	!	!	!	!	!LO:LB:g=original	!
.	.	2A\	.	2d#X\	.	2a\	.
=127	=127	=127	=127	=127	=127	=127	=127
2E\	a-	2B\	-tu-	2e\	-tu-	2g#X\	-tu-
2D#X\	-men	2c\	-ri	2f#X\	-ri	2a\	-ri
!LO:LB:g=original	!	!	!	!	!	!	!
=128	=128	=128	=128	=128	=128	=128	=128
!	!	!LO:SIC:v:l:s=sae-	!	!LO:SIC:v:l:s=sae-	!	!LO:SIC:v:l:s=sae-	!
2.E\	vi-	2.B\	se-	2.e\	se-	2a\	se-
.	.	.	.	.	.	2g#X\	-cu-
4E\	-tam	4B\	-cu-	4e\	-cu-	.	.
=129	=129	=129	=129	=129	=129	=129	=129
1AA/	ven-	1A\	-li	1e\	-li	2a\	-li
.	.	.	.	.	.	2a\	a-
!	!	!LO:LB:g=original	!	!	!	!	!
=130	=130	=130	=130	=130	=130	=130	=130
!	!	!LO:TX:a:t=1.	!	!	!	!	!
1AA/	-turi	1r	.	1f\	a-	2a\	.
.	.	.	.	.	.	2gn\	-men
=131	=131	=131	=131	=131	=131	=131	=131
!LO:SIC:v:l:s=sae-	!	!	!	!	!	!	!
1AA/	se-	2r	.	1e\	-men	2g\	a-
.	.	2A\	a-	.	.	2f/	.
=132	=132	=132	=132	=132	=132	=132	=132
1AA/	-culi	2A\	.	2d\	a-	2f/	.
.	.	2G/	-men	2c#X\	.	2e/	.
=133	=133	=133	=133	=133	=133	=133	=133
1AA/	a-	2F/	a-	2d\	.	2d/	.
.	.	2E/	.	2c#X\	-men	2e/	-men
=134	=134	=134	=134	=134	=134	=134	=134
1AA/	.	2D/	.	1d\	a-	1fn/	a-
.	.	2F/	.	.	.	.	.
=135	=135	=135	=135	=135	=135	=135	=135
1AA/	-men.	1A\	-men.	1c#X\	-men.	1e/	-men.
!LO:TX:a:t=48.	!	!LO:TX:a:t=48	!	!LO:TX:a:t=48.	!	!LO:TX:a:t=48.	!
==	==	==	==	==	==	==	==
*-	*-	*-	*-	*-	*-	*-	*-
!!!system-decoration: [(s1,s2,s3,s4)]
!!!EED: Leszek Kubiak
!!!EST: 2021-01-15
!!!ENC: Andrzej Kubiczek
!!!END: 2021-01-14
